CSETWebApi/CSETWeb_Api/CSETWeb_ApiCore/Diagram/src/main/webapp/img/lib/mscae/Virtual_Machine.svg

<svg xmlns="http://www.w3.org/2000/svg" width="50.001" height="46.149"><path d="M32.426 36.534H18.83c1.634 5.768-.56 6.595-10.175 6.595v3.02h32.692v-3.02c-9.614 0-10.557-.824-8.92-6.595" fill="#7a7a7a"/><path d="M46.98 0H2.718C1.214 0 .001 1.345.001 2.847v30.866c0 1.493 1.213 2.823 2.717 2.823H46.98c1.5 0 3.02-1.33 3.02-2.823V2.847C50 1.34 48.48 0 46.98 0" fill="#a0a1a2"/><path d="M47.01.003c-.01 0-.02-.002-.03-.002H2.717C1.213.001 0 1.345 0 2.848v30.865c0 1.494 1.213 2.824 2.717 2.824H3.77L47.01.003z" opacity=".2" fill="#fff"/><g fill="#59b4d9"><path d="M3.8 3.848h42.308v28.84H3.8z"/><path d="M42.528 3.79h.002L3.8 3.85v28.84h.058V3.85z"/></g><path d="M8.655 43.128h32.692v3.02H8.655z" fill="#a0a1a2"/><path d="M25.518 2.095a.71.71 0 0 1-.71.71.71.71 0 0 1-.709-.71.71.71 0 0 1 .709-.71.71.71 0 0 1 .71.71" fill="#b8d432"/><g fill="#fff"><path d="M25.546 17.394c-.045 0-.09-.014-.134-.038l-8.804-5.082a.27.27 0 0 1-.132-.231c0-.095.05-.183.132-.23l8.75-5.05c.082-.046.182-.046.263 0l8.807 5.084c.082.047.13.135.13.23s-.05.183-.13.23l-8.748 5.048a.27.27 0 0 1-.135.038"/><path d="M24.28 29.746c-.05 0-.095-.012-.134-.036l-8.778-5.066a.26.26 0 0 1-.136-.231V14.247c0-.096.05-.183.136-.23s.18-.05.268 0l8.777 5.064a.28.28 0 0 1 .13.233V29.48c0 .097-.052.183-.13.23a.28.28 0 0 1-.133.036" opacity=".7"/><path d="M26.766 29.746c-.048 0-.093-.012-.138-.036a.27.27 0 0 1-.129-.231V19.377c0-.094.05-.182.13-.23l8.777-5.064a.26.26 0 0 1 .264 0c.084.047.135.135.135.23v10.1a.26.26 0 0 1-.135.231L26.895 29.7c-.036.024-.083.036-.13.036" opacity=".4"/></g></svg>

<?xml version="1.0" encoding="UTF-8" standalone="no"?>
<svg
   xmlns:dc="http://purl.org/dc/elements/1.1/"
   xmlns:cc="http://creativecommons.org/ns#"
   xmlns:rdf="http://www.w3.org/1999/02/22-rdf-syntax-ns#"
   xmlns:svg="http://www.w3.org/2000/svg"
   xmlns="http://www.w3.org/2000/svg"
   xmlns:sodipodi="http://sodipodi.sourceforge.net/DTD/sodipodi-0.dtd"
   xmlns:inkscape="http://www.inkscape.org/namespaces/inkscape"
   version="1.1"
   id="Layer_1"
   x="0px"
   y="0px"
   width="50.000999"
   height="46.148998"
   viewBox="0 0 50.000999 46.148998"
   enable-background="new 0 0 50 50"
   xml:space="preserve"
   inkscape:version="0.91 r13725"
   sodipodi:docname="Azure Virtual Machine_COLOR.svg"><metadata
     id="metadata27"><rdf:RDF><cc:Work
         rdf:about=""><dc:format>image/svg+xml</dc:format><dc:type
           rdf:resource="http://purl.org/dc/dcmitype/StillImage" /><dc:title></dc:title></cc:Work></rdf:RDF></metadata><defs
     id="defs25" /><sodipodi:namedview
     pagecolor="#ffffff"
     bordercolor="#666666"
     borderopacity="1"
     objecttolerance="10"
     gridtolerance="10"
     guidetolerance="10"
     inkscape:pageopacity="0"
     inkscape:pageshadow="2"
     inkscape:window-width="1920"
     inkscape:window-height="1018"
     id="namedview23"
     showgrid="false"
     fit-margin-top="0"
     fit-margin-left="0"
     fit-margin-right="0"
     fit-margin-bottom="0"
     inkscape:zoom="10.363697"
     inkscape:cx="21.046262"
     inkscape:cy="17.626623"
     inkscape:window-x="-8"
     inkscape:window-y="-8"
     inkscape:window-maximized="1"
     inkscape:current-layer="Layer_1" /><path
     d="M 32.426,36.534 31.235,36.534 19.445,36.534 18.83,36.534 C 20.464,42.302 18.269,43.129 8.655,43.129 L 8.655,46.149 20.882,46.149 29.809,46.149 41.347,46.149 41.347,43.129 C 31.733,43.129 30.79,42.305 32.426,36.534"
     id="path3"
     inkscape:connector-curvature="0"
     style="fill:#7a7a7a" /><path
     d="M 46.98,0 2.718,0 C 1.214,0 0.001,1.345 0.001,2.847 L 0.001,33.713 C 0.001,35.206 1.214,36.536 2.718,36.536 L 46.98,36.536 C 48.481,36.536 50.001,35.206 50.001,33.713 L 50.001,2.847 C 50.001,1.341 48.481,0 46.98,0"
     id="path5"
     inkscape:connector-curvature="0"
     style="fill:#a0a1a2" /><path
     enable-background="new    "
     d="M 47.011,0.003 C 47,0.003 46.99,10e-4 46.98,10e-4 L 2.717,10e-4 C 1.213,10e-4 0,1.345 0,2.848 L 0,33.713 C 0,35.207 1.213,36.537 2.717,36.537 L 3.77,36.537 47.011,0.003 Z"
     id="path7"
     inkscape:connector-curvature="0"
     style="opacity:0.2;fill:#ffffff" /><polygon
     points="3.79,5.848 46.098,5.848 46.098,34.689 3.79,34.689 "
     id="polygon9"
     style="fill:#59b4d9"
     transform="translate(0,-2)" /><polygon
     points="42.528,5.791 42.53,5.791 3.79,5.849 3.79,34.689 3.848,34.689 3.848,5.849 "
     id="polygon11"
     style="fill:#59b4d9"
     transform="translate(0,-2)" /><rect
     x="8.6549997"
     y="43.127998"
     width="32.692001"
     height="3.0209999"
     id="rect13"
     style="fill:#a0a1a2" /><path
     d="M 25.518,2.095 C 25.518,2.487 25.2,2.805 24.808,2.805 24.415,2.805 24.099,2.487 24.099,2.095 24.099,1.702 24.415,1.385 24.808,1.385 25.2,1.385 25.518,1.702 25.518,2.095"
     id="path15"
     inkscape:connector-curvature="0"
     style="fill:#b8d432" /><path
     d="M 25.546,17.394 C 25.501,17.394 25.455,17.38 25.412,17.356 L 16.608,12.274 C 16.527,12.226 16.476,12.137 16.476,12.043 16.476,11.948 16.527,11.86 16.608,11.813 L 25.359,6.764 C 25.441,6.718 25.541,6.718 25.622,6.764 L 34.429,11.848 C 34.511,11.895 34.56,11.983 34.56,12.078 34.56,12.174 34.511,12.261 34.429,12.308 L 25.681,17.356 C 25.638,17.38 25.595,17.394 25.546,17.394"
     id="path17"
     inkscape:connector-curvature="0"
     style="fill:#ffffff" /><path
     enable-background="new    "
     d="M 24.281,29.746 C 24.231,29.746 24.186,29.734 24.147,29.71 L 15.369,24.644 C 15.284,24.597 15.233,24.511 15.233,24.413 L 15.233,14.247 C 15.233,14.151 15.284,14.064 15.369,14.016 15.45,13.967 15.55,13.967 15.637,14.016 L 24.414,19.08 C 24.492,19.13 24.544,19.217 24.544,19.313 L 24.544,29.479 C 24.544,29.576 24.492,29.662 24.414,29.71 24.37,29.734 24.324,29.746 24.281,29.746"
     id="path19"
     inkscape:connector-curvature="0"
     style="opacity:0.7;fill:#ffffff" /><path
     enable-background="new    "
     d="M 26.766,29.746 C 26.718,29.746 26.673,29.734 26.628,29.71 26.55,29.662 26.499,29.576 26.499,29.479 L 26.499,19.377 C 26.499,19.283 26.55,19.195 26.628,19.146 L 35.405,14.082 C 35.489,14.034 35.587,14.034 35.669,14.082 35.753,14.129 35.804,14.217 35.804,14.312 L 35.804,24.413 C 35.804,24.511 35.753,24.597 35.669,24.644 L 26.895,29.71 C 26.859,29.734 26.812,29.746 26.766,29.746"
     id="path21"
     inkscape:connector-curvature="0"
     style="opacity:0.4;fill:#ffffff" /></svg>
